X: 891
T: Silver Belle Schottische
B: jims roots
M:2/4
L:1/8
R: polka
Q: 1/4=100
K:Dmaj
V:1 
f g ^g||a/b/a/f/ g/a/g/e/ f/g/f/d/ e/f/e/c/|d>e f d Afed|e>f ge Agfe|
f>e fga f g ^g|a/b/a/f/ g/a/g/e/ f/g/f/d/ e/f/e/c/|d>e f d A2 A2|e>fgeA gfe|
d d>d d z F G ^G ||
|A>A ^GA B2g2|f>efdA4| e>fec Agfe|f>gfdA F G ^G|
|A>A ^GA B2g2|f>efdA4|e>fec Agfe|d d>d d2 z||
% abcbook-tune_id 6298c287c6c8113a16e034c5


% abcbook-boost 0
% abcbook-tablature 
% abcbook-transpose 
% abcbook-lastupdated 1654178440427
% abcbook-soundfonts 
% abcbook-repeats 1


